X: 1
T: Lekatt-Mats g\aangl\aat
M: 2/4
L: 1/16
Z: 2010 John Chambers <jc:trillian.mit.edu>
S: printed MS of unknown origin
%%slurgraces
K: G
D2 \
| G3A ~(BA)Bc | {c}d4 ~d2(^cd) \
| e3f {f}Tg2fe | d4- d2(Bd \
| ga)gf (e~f)ed | {AB}c2Tc2 {A}B2(d~c) \
| [M:3/4] (AB)AF {F}G4- G2 :|
|: (c2 |\
[M:2/4] B3)A (GF)GB | {B}e4 d3c \
| (Bc)BA {D}G2{DE}F | {F}A6 (D2 \
| G3)A (~BA)Bc | ~(df) {fg}a3(f |
| ~ga)gf | e2{AB}c2 | {c}[d6D6] (Bd \
| ga)gf (e~f)ed | {AB}c2Tc2 {A}B2(d~c) \
| [M:3/4] (AB)AF {F}G4- G2 :|
